X: 4216
T: PADDY MAGUIRE
R: Jig
%R: jig
B: James Kerr "Merry Melodies" v.4 p.24 #216
Z: 2016 John Chambers <jc:trillian.mit.edu>
M: 6/8
L: 1/8
K: G
|:\
dBB eBB | dBB BAG | efg dcB | ABG FED |\
dBB eBB | dBB BAG | efg dcB | cBA G3 :|
|:\
dBB gfe | dec BAG | dBB gfe | dBG A3 |\
dBB gfe | dec BAG | efg dcB | cBA G3 :|

%%sep 1 1 500
%%sep 1 1 500

